!!!COM: Palestrina, Giovanni Perluigi da
!!!OPR: Inviolata
!!!OTL: Credo
**kern	**kern	**kern	**kern
*Ibass	*Itenor	*Icalto	*Icant
!Bassus	!Tenor	!Altus	!Cantus
*clefF4	*clefGv2	*clefG2	*clefG2
*k[b-]	*k[b-]	*k[b-]	*k[b-]
*F:ion	*F:ion	*F:ion	*F:ion
*M4/2	*M4/2	*M4/2	*M4/2
=1	=1	=1	=1
0r	0r	1F	0r
.	.	2F	.
.	.	2F	.
=2	=2	=2	=2
0r	0r	1G	0r
.	.	1A	.
=3	=3	=3	=3
0r	0r	2.B-	1f
.	.	4c	.
.	.	4d	2f
.	.	4e	.
.	.	[2f	2f
=4	=4	=4	=4
0r	0r	2f]	1g
.	.	2e	.
.	.	4d	1a
.	.	4c	.
.	.	4c	.
.	.	8B-	.
.	.	8A	.
=5	=5	=5	=5
0r	0r	4G	1.b-
.	.	4A	.
.	.	4B-	.
.	.	4c	.
.	.	4d	.
.	.	4e	.
.	.	[2f	2a
=6	=6	=6	=6
0r	1r	2f]	0g
.	.	4e	.
.	.	4d	.
.	1c	1e	.
=7	=7	=7	=7
1F	2c	1f	0a
.	2c	.	.
2F	1d	1r	.
2F	.	.	.
=8	=8	=8	=8
1G	2B-	1r	2r
.	2G	.	2g
2E	2.c	2r	2g
2C	.	2c	2g
.	4B-	.	.
=9	=9	=9	=9
2.F	4A	2c	1a
.	4G	.	.
.	2A	2c	.
4E	.	.	.
4D	2B-	1d	2f
4C	.	.	.
2D	2A	.	2d
=10	=10	=10	=10
1E-	1G	2B-	2.g
.	.	2G	.
.	.	.	4f
1C	2A	2.c	1e
.	[2G	.	.
.	.	4B-	.
=11	=11	=11	=11
2D	4G]	2A	1d
.	4F	.	.
2BB-	1F	2B-	.
1C	.	1G	2r
.	4E	.	[2g
.	4D	.	.
=12	=12	=12	=12
0r	2E	2r	2g]
.	2F	1d	2a
.	1G	.	2b-
.	.	2e	2g
=13	=13	=13	=13
0r	1D	2f	1a
.	.	2d	.
.	1r	2e	2.cc
.	.	[2f	.
.	.	.	4b-
=14	=14	=14	=14
0r	2r	4f]	4a
.	.	4e	4g
.	1G	4d	1b-
.	.	4c	.
.	.	2B-	.
.	2A	2c	4a
.	.	.	4g
=15	=15	=15	=15
1r	2B-	0d	2f
.	2G	.	2.g
[1D	2.A	.	.
.	.	.	4f
.	.	.	[2f
.	4G	.	.
=16	=16	=16	=16
2D]	4A	0r	2f]
.	4B-	.	.
2E	1c	.	2e
2F	.	.	1d
2D	4B-	.	.
.	4A	.	.
=17	=17	=17	=17
2E	2G	1r	1c
2.F	2.A	.	.
.	.	2r	1r
4E	4G	.	.
4D	[2B-	[2d	.
4C	.	.	.
=18	=18	=18	=18
2BB-	2B-]	2d]	1r
2C	4A	2e	.
.	4G	.	.
2D	2F	2f	2r
2BB-	[2G	2d	[2g
=19	=19	=19	=19
2C	4G]	2e	2g]
.	4C	.	.
2AA	1F	2c	2a
1GG	.	2d	2b-
.	2E	2e	2g
=20	=20	=20	=20
2r	1F	2A	2a
1D	.	1f	2a
.	1r	.	2f
2E	.	4e	2g
.	.	4d	.
=21	=21	=21	=21
2F	0r	2c	2a
2D	.	2.d	1b-
2E	.	.	.
.	.	4c	.
2F	.	4c	[2a
.	.	8B-	.
.	.	8A	.
=22	=22	=22	=22
1G	2r	1B-	2a]
.	1d	.	2g
2.F	.	1A	1a
.	2c	.	.
4E	.	.	.
=23	=23	=23	=23
2D	2B-	1r	0r
2C	1A	.	.
1BB-	.	2r	.
.	2G	[2d	.
=24	=24	=24	=24
1AA	2F	2d]	1r
.	2E	2c#	.
1D	4F	2d	2r
.	4G	.	.
.	4A	[2f	[2a
.	4B	.	.
=25	=25	=25	=25
1C	1c	2f]	2a]
.	.	2e	2g
1r	2r	1d	2a
.	[2G	.	[2b-
=26	=26	=26	=26
0r	2G]	1d	2b-]
.	2F#	.	2a
.	2G	[1d	2g
.	[2B-	.	2f
=27	=27	=27	=27
0r	2B-]	2d]	2g
.	2A	2c	2a
.	2G	4B-	4d
.	.	4c	4e
.	2F	[2d	4f
.	.	.	4d
=28	=28	=28	=28
1r	2G	2d]	1e
.	2A	2c#	.
2r	1D	1d	[1f
[2D	.	.	.
=29	=29	=29	=29
2D]	2r	0r	2f]
2D	1A	.	4e
.	.	.	4d
2C	.	.	2e
2AA	2A	.	2c
=30	=30	=30	=30
0BB-	2G	2r	1d
.	2F	1d	.
.	1G	.	1r
.	.	2d	.
=31	=31	=31	=31
1AA	1A	2c	2r
.	.	2c	1a
1r	2F	4A	.
.	.	4B-	.
.	2F	4c	2a
.	.	4d	.
=32	=32	=32	=32
0r	2c	2e	2g
.	2d	1f	2f
.	2.c	.	1g
.	.	4e	.
.	4B	4d	.
=33	=33	=33	=33
0r	2c	2e	2.a
.	1d	2.f	.
.	.	.	4g
.	.	.	2f
.	.	4e	.
.	2G	[2d	2g
=34	=34	=34	=34
1r	1A	2d]	1e
.	.	2c#	.
1D	2r	1d	1d
.	2F	.	.
=35	=35	=35	=35
2C	2E	0r	0r
2BB	2D	.	.
1C	1E	.	.
=36	=36	=36	=36
1D	1D	2r	1f
.	.	2d	.
1r	1r	2c	2e
.	.	2B	2d
=37	=37	=37	=37
1A	0r	2c	2.e
.	.	2c	.
.	.	.	4f
2G	.	[1d	2g
2F	.	.	2a
=38	=38	=38	=38
2G	2r	1d]	2.g
2G	1d	.	.
.	.	.	4f
1A	.	1r	2e
.	2c	.	[2a
=39	=39	=39	=39
1r	1B-	1d	2a]
.	.	.	2g
2r	[1A	2c	1a
[2D	.	[2f	.
=40	=40	=40	=40
2D]	1A]	2f]	2d
2C	.	2e	2e
1BB-	1D	1d	2f
.	.	.	2g
=41	=41	=41	=41
1AA	2E	2c	1a
.	2F	2A	.
1r	1G	1B-	2d
.	.	.	2g
=42	=42	=42	=42
1D	2.A	2A	2f
.	.	2f	2d
.	4B-	.	.
2C	1c	2e	2e
2AA	.	2c	[2f
=43	=43	=43	=43
2.BB-	2r	1.d	4f]
.	.	.	4d
.	2B-	.	2.g
4C	.	.	.
1D	2A	.	.
.	.	.	4f
.	2F	2B-	[2f
=44	=44	=44	=44
0C	0G	0c	2f]
.	.	.	4e
.	.	.	4d
.	.	.	1e
=45	=45	=45	=45
1AA	0F	1A	0f
2r	.	2r	.
[2F	.	[2c	.
=46	=46	=46	=46
2F]	0r	2c]	2r
2F	.	2c	1f
2BB-	.	2d	.
2D	.	2d	2f
=47	=47	=47	=47
1C	2r	0e	2g
.	1c	.	2g
1AA	.	.	2.a
.	2c	.	.
.	.	.	4g
=48	=48	=48	=48
0r	2F	1c	4a
.	.	.	4b-
.	2A	.	1cc
.	1G	2.d	.
.	.	.	2b-
.	.	4e	.
=49	=49	=49	=49
2r	1F	2.f	2.a
1F	.	.	.
.	.	4e	4g
.	1r	2d	2.f
2F	.	[2c	.
.	.	.	4e
=50	=50	=50	=50
2G	1r	2c]	1d
2G	.	2B	.
1A	2r	1c	1c
.	[2F	.	.
=51	=51	=51	=51
2D	2F]	0r	0r
1F	2F	.	.
.	2G	.	.
2E	2G	.	.
=52	=52	=52	=52
2.D	1A	0r	2r
.	.	.	1f
4C	.	.	.
2BB-	2D	.	.
2AA	[2F	.	2f
=53	=53	=53	=53
2BB-	4F]	2r	2g
.	8E	.	.
.	8D	.	.
2C	2E	1c	2g
1FF	2F	.	2a
.	2A	2c	[2cc
=54	=54	=54	=54
0r	1G	2d	4cc]
.	.	.	8b-
.	.	.	8a
.	.	2d	2b-
.	1r	2e	2g
.	.	[2f	2a
=55	=55	=55	=55
0r	0r	4f]	2d
.	.	8e	.
.	.	8d	.
.	.	2e	2.g
.	.	2c	.
.	.	.	8f
.	.	.	8e
.	.	2d	2f
=56	=56	=56	=56
1C	0r	2G	2.e
.	.	1c	.
.	.	.	8d
.	.	.	8c
2G	.	.	1d
2G	.	2B	.
=57	=57	=57	=57
2.A	2r	1c	1c
.	2F	.	.
4G	.	.	.
2F	2c	1r	1r
2E	2c	.	.
=58	=58	=58	=58
2D	2.d	0r	1r
1G	.	.	.
.	4c	.	.
.	2B-	.	2r
[2F	2A	.	2c
=59	=59	=59	=59
2F]	2G	1r	2g
2E	2G	.	2g
2.F	1F	2r	1a
.	.	2F	.
8E	.	.	.
8D	.	.	.
=60	=60	=60	=60
2E	0r	2c	2g
2F	.	2c	2a
4BB-	.	1d	2b-
4C	.	.	.
4D	.	.	[2a
4E	.	.	.
=61	=61	=61	=61
1F	2r	2c	4a]
.	.	.	4g
.	2F	2.f	4a
.	.	.	4f
1r	2c	.	1g
.	.	8e	.
.	.	8d	.
.	2c	2e	.
=62	=62	=62	=62
2r	1d	0f	1f
2B-	.	.	.
2A	2c	.	1r
2F	2d	.	.
=63	=63	=63	=63
1G	1B-	1d	1b-
1F	[1c	2r	2a
.	.	2f	2f
=64	=64	=64	=64
1C	1c]	2e	2g
.	.	2c	1a
1r	2r	1d	.
.	2f	.	4g
.	.	.	4f
=65	=65	=65	=65
1r	2e	2c	2g
.	2c	2A	2a
2r	1d	1B-	2f
2B-	.	.	[2g
=66	=66	=66	=66
2A	2c	1F	4g]
.	.	.	4f
2F	2A	.	1f
1G	1B-	2r	.
.	.	2B-	2e
=67	=67	=67	=67
2.F	2r	1A	0f
.	2c	.	.
4E	.	.	.
1D	2B-	2F	.
.	[2A	2f	.
=68	=68	=68	=68
2C	4A]	2e	0r
.	4G	.	.
2C	2E	2c	.
2BB-	2F	1d	.
2GG	[2G	.	.
=69	=69	=69	=69
1AA	4G]	2c	1cc
.	4F	.	.
.	2.F	2A	.
1GG	.	1B-	2b-
.	8E	.	.
.	8D	.	.
.	2E	.	2g
=70	=70	=70	=70
1FF	1F	2A	1a
.	.	2f	.
1C	1G	2e	2g
.	.	[2c	2e
=71	=71	=71	=71
0FF	2.A	4c]	0f
.	.	4B-	.
.	.	4A	.
.	4B-	4G	.
.	1c	1A	.
=72	=72	=72	=72
1C	1c	1G	1e
1r	1r	1r	1r
=73	=73	=73	=73
0C	0G	0c	0e
=74	=74	=74	=74
1C	1G	1c	1e
1AA	1A	1c	1e
=75	=75	=75	=75
1D	1A	1d	1f
1BB-	1B-	1d	1f
=76	=76	=76	=76
1C	1G	1c	1e
1r	1r	1r	1r
=77	=77	=77	=77
1C	1G	1c	1e
[1F	[1A	[1c	[1f
=78	=78	=78	=78
2F]	2A]	2c]	2f]
2F	2A	2c	2f
1D	1A	1d	1f
=79	=79	=79	=79
0G	0B-	1.d	0g
.	.	2e	.
=80	=80	=80	=80
1F	1c	1f	1a
1r	1r	1r	1r
=81	=81	=81	=81
1.F	1.c	1.f	1.a
2F	2c	2f	2a
=82	=82	=82	=82
1D	1d	1f	1a
1AA	1c	1e	1a
=83	=83	=83	=83
1BB-	1.B-	1d	1g
1BB-	.	1d	1f
.	2A	.	.
=84	=84	=84	=84
1C	1G	1c	1e
1r	1r	1r	1r
=85	=85	=85	=85
0C	0G	0c	0e
=86	=86	=86	=86
1AA	1A	1c	1e
1AA	1A	1c	1f
=87	=87	=87	=87
2.GG	1.B-	0d	1g
4AA	.	.	.
1BB-	.	.	[1f
.	2A	.	.
=88	=88	=88	=88
0C	0G	0c	2f]
.	.	.	4e
.	.	.	4d
.	.	.	1e
=89	=89	=89	=89
[0FF	[0F	[0A	[0f
=90	=90	=90	=90
0FF]	0F]	0A]	0f]
*	*	*	*-
!! Crucifixus
*Itenor	*Icalto	*Icant
!Tenor	!Altus	!Cantus
*clefGv2	*clefG2	*clefG2
*k[b-]	*k[b-]	*k[b-]
*F:ion	*F:ion	*F:ion
*M4/2	*M4/2	*M4/2
=91	=91	=91
0r	0B-	0r
=92	=92	=92
0r	1d	0r
.	1e-	.
=93	=93	=93
0r	1d	0f
.	2r	.
.	[2d	.
=94	=94	=94
0r	2d]	1a
.	2c	.
.	2d	1b-
.	2e	.
=95	=95	=95
0F	2.f	0a
.	4e	.
.	2d	.
.	4c	.
.	4B-	.
=96	=96	=96
1A	1c	2r
.	.	1a
1B-	2r	.
.	[2d	2g
=97	=97	=97
1A	2d]	1a
.	2c	.
2r	2d	2b
[2A	2e	[2cc
=98	=98	=98
2A]	2f	2cc]
2G	2g	2b-
1A	2c	1a
.	[2f	.
=99	=99	=99
2B-	2f]	0g
1c	2e	.
.	1d	.
4B-	.	.
4A	.	.
=100	=100	=100
4B-	1G	2r
4A	.	.
4G	.	2g
4F	.	.
4E	2r	2g
4D	.	.
2E	2c	2g
=101	=101	=101
1F	2c	2a
.	2c	2cc
1r	2d	4b-
.	.	4a
.	2f	4a
.	.	8g
.	.	8f
=102	=102	=102
2r	2e	2.g
2G	2.d	.
.	.	4a
2G	.	1b-
.	4c	.
2G	4d	.
.	4e	.
=103	=103	=103
2A	2f	2a
2c	2.e	2.g
1B-	.	.
.	4d	4f
.	[2d	2d
=104	=104	=104
1A	2d]	2.e
.	4c	.
.	4B	4d
2r	2c#	2e
[2d	2d	2f
=105	=105	=105
2d]	1A	1e
2c#	.	.
2.d	1r	[1f
4c	.	.
=106	=106	=106
2B-	2r	1f]
2A	1f	.
2B-	.	1g
2c	2e	.
=107	=107	=107
0F	2.f	1a
.	4e	.
.	2d	2r
.	2c	[2a
=108	=108	=108
0r	2d	2a]
.	2e	2g
.	2A	2.a
.	[2d	.
.	.	4g
=109	=109	=109
2r	2d]	2f
1A	2c	2e
.	2A	2f
2G	2B	2g
=110	=110	=110
2.A	1c	2e
.	.	2a
4G	.	.
2F	2.c	2a
2E	.	[2g
.	4B-	.
=111	=111	=111
2F	2A	4g]
.	.	4f
2D	4G	1f
.	4F	.
1C	1G	.
.	.	2e
=112	=112	=112
1F	2F	0f
.	2c	.
2r	2c	.
2F	2c	.
=113	=113	=113
2F	1f	1r
2F	.	.
1B-	1d	1f
=114	=114	=114
2A	0r	2f
2.B-	.	2f
.	.	1b-
4A	.	.
2G	.	.
=115	=115	=115
2F	1c	2a
2E	.	2.cc
[1F	2c	.
.	.	4b-
.	2c	4a
.	.	4g
=116	=116	=116
1F]	1f	2a
.	.	2a
2C	2e	2g
2F	[2f	[2a
=117	=117	=117
2A	4f]	4a]
.	4e	4g
2B-	2d	2f
2c	2c	2e
[2d	2B	2d
=118	=118	=118
4d]	1c	2.e
4c	.	.
1c	.	.
.	.	8d
.	.	8c
.	1G	1d
2B	.	.
=119	=119	=119
4c	2r	1e
4B-	.	.
4A	1c	.
4G	.	.
2A	.	1r
2F	[2d	.
=120	=120	=120
2.G	2d]	2r
.	2B-	1g
4F	.	.
2E	1c	.
2F	.	[2a
=121	=121	=121
1D	2.d	2a]
.	.	2f
.	4c	.
1r	2B-	1g
.	2c	.
=122	=122	=122
1r	2A	2.a
.	2.d	.
.	.	4g
2r	.	2f
.	4c	.
[2G	4B	[2g
.	4A	.
=123	=123	=123
2G]	2B	4g]
.	.	4f
1A	2.c	4e
.	.	4d
.	.	2e
.	4B	.
2F	4c	2f
.	4A	.
=124	=124	=124
1G	4B	2.d
.	4c	.
.	2.d	.
.	.	4e
2.A	.	2f
.	4c	.
.	[2c	2e
4G	.	.
=125	=125	=125
2F	2c]	1d
2G	2B	.
2E	[1c	1c
[2A	.	.
=126	=126	=126
4A]	1c]	2r
4G	.	.
2.F	.	1f
.	2r	.
4D	.	.
2E	[2c	2g
=127	=127	=127
1F	2c]	1a
.	2d	.
1C	1e	2g
.	.	2g
=128	=128	=128
1r	2c	2.cc
.	2c	.
.	.	4b-
2r	2.f	4a
.	.	4g
[2F	.	[2a
.	4e	.
=129	=129	=129
2F]	1d	2a]
2G	.	4g
.	.	4f
1A	2c	1e
.	2c	.
=130	=130	=130
2F	1f	1a
2F	.	.
2.c	[1e	1g
4B-	.	.
=131	=131	=131
1A	1e]	2r
.	.	2cc
2G	1r	2b
2A	.	2cc
=132	=132	=132
4F	1f	2.a
4G	.	.
4A	.	.
4B-	.	4a
2c	2e	2g
2F	2f	[2a
=133	=133	=133
0r	2.d	4a]
.	.	4g
.	.	4a
.	4d	4b-
.	2c	1a
.	[2f	.
=134	=134	=134
1c	2f]	0g
.	2e	.
2B	2d	.
2c	[2e	.
=135	=135	=135
2.A	2e]	2r
.	4d	2cc
4A	4c	.
2G	2d	2b
[2A	2c	2cc
=136	=136	=136
4A]	2r	2.a
4G	.	.
4A	2f	.
4B-	.	4a
2c	2e	2g
2F	2f	[2a
=137	=137	=137
2r	2.d	2a]
2B-	.	2f
.	4d	.
2A	2c	1f
2B-	[2d	.
=138	=138	=138
2.G	4d]	2r
.	4c	.
.	4d	2b-
4G	4e	.
2F	2f	2a
4G	2d	2b-
4F	.	.
=139	=139	=139
4G	2e-	2.g
4A	.	.
1B-	2.d	.
.	.	4g
.	.	[1f
.	4B-	.
2A	2c	.
=140	=140	=140
2B-	2d	1f]
2d	1f	.
1c	.	1g
.	2e	.
=141	=141	=141
0F	2d	0a
.	2c	.
.	1f	.
=142	=142	=142
[0c	[0e	[0g
=143	=143	=143
0c]	0e]	0g]
*-	*-	*-
!! Et iterum
**kern	**kern	**kern	**kern
*Ibass	*Itenor	*Icalto	*Icant
!Bassus	!Tenor	!Altus	!Cantus
*clefF4	*clefGv2	*clefG2	*clefG2
*k[b-]	*k[b-]	*k[b-]	*k[b-]
*F:ion	*F:ion	*F:ion	*F:ion
*M4/2	*M4/2	*M4/2	*M4/2
=144	=144	=144	=144
1r	1c	0r	0r
1F	2c	.	.
.	2c	.	.
=145	=145	=145	=145
2F	2A	0r	0r
2F	2F	.	.
2E	2.G	.	.
2C	.	.	.
.	4A	.	.
=146	=146	=146	=146
1D	2B-	1d	0r
.	1A	.	.
1BB-	.	2d	.
.	2G	2d	.
=147	=147	=147	=147
2AA	0A	1.c	1a
2F	.	.	.
2F	.	.	2a
2F	.	2A	2a
=148	=148	=148	=148
2E	0r	1c	2g
2C	.	.	2e
1D	.	2B-	1f
.	.	[2A	.
=149	=149	=149	=149
1BB-	1r	2A]	1d
.	.	2G	.
1AA	2r	1A	1c
.	2A	.	.
=150	=150	=150	=150
1D	2A	1F	1r
.	2B	.	.
2.C	[1c	1G	1e
4BB-	.	.	.
=151	=151	=151	=151
1AA	2c]	1A	2e
.	4B-	.	2f#
.	4A	.	.
1GG	2B-	[1d	[1g
.	2B-	.	.
=152	=152	=152	=152
1D	1A	2d]	2g]
.	.	2d	4f
.	.	.	4e
1D	2r	[1A	2f
.	[2d	.	2f
=153	=153	=153	=153
2AA	2d]	1A]	1e
1A	2c	.	.
.	1f	2r	1r
2D	.	[2d	.
=154	=154	=154	=154
1A	1e	2d]	1r
.	.	2c	.
1D	1d	1f	2r
.	.	.	[2a
=155	=155	=155	=155
0r	2c	2e	2a]
.	2B-	2d	2g
.	1A	2e	1cc
.	.	2c	.
=156	=156	=156	=156
0r	2G	4d	2b-
.	.	4e	.
.	2F	4f	2a
.	.	4d	.
.	2c	2e	2g
.	2d	[2d	2f
=157	=157	=157	=157
1r	1A	2d]	1e
.	.	2c#	.
2r	[1d	2d	2d
[2G	.	[2B-	[2b-
=158	=158	=158	=158
2G]	1d]	2B-]	2b-]
2G	.	2B-	2b-
2F	1r	2c	2a
2E	.	2c	2g
=159	=159	=159	=159
2D	2r	2d	4f
.	.	.	4e
1D	1F	1f	4d
.	.	.	4c#
.	.	.	1d
2D	2F	2f	.
=160	=160	=160	=160
2C	2G	2e	1r
2BB-	2G	2d	.
[1AA	1A	1c	2r
.	.	.	[2a
=161	=161	=161	=161
1AA]	1.c	2r	2a]
.	.	1e	2a
1r	.	.	2a
.	2c	2e	[2g
=162	=162	=162	=162
1r	2B-	2d	2g]
.	2A	2c	2.f
2r	1G	2d	.
.	.	.	8e
.	.	.	8d
2C	.	4c	2e
.	.	4B-	.
=163	=163	=163	=163
2D	1F	1A	2f
1F	.	.	2a
.	1C	2r	1g
2E	.	2c	.
=164	=164	=164	=164
2D	2r	2d	1f
2D	2F	2f	.
2C	2G	2e	1r
4BB-	[2B-	[2d	.
4C	.	.	.
=165	=165	=165	=165
4D	2B-]	2d]	1r
4E	.	.	.
1F	2A	2c	.
.	2G	2d	2r
2E	2G	[2c	2c
=166	=166	=166	=166
1D	2.F	2c]	2d
.	.	2B	1f
.	4G	.	.
2C	4A	1c	.
.	4B-	.	.
2C	2c	.	2e
=167	=167	=167	=167
2D	2B-	1F	1f
1F	2A	.	.
.	1G	2r	2g
2E	.	2G	2g
=168	=168	=168	=168
1F	1F	2A	2c
.	.	1c	2f
2G	1r	.	2e
2G	.	2B-	4d
.	.	.	4e
=169	=169	=169	=169
1F	2r	4A	4f
.	.	4B-	4g
.	1A	4c	4a
.	.	4d	4b-
1r	.	2e	2cc
.	2A	[2f	2a
=170	=170	=170	=170
1r	2B-	2f]	1g
.	2c	2e	.
2r	[1d	1f	2r
[2D	.	.	[2f
=171	=171	=171	=171
2D]	1d]	1r	2f]
2D	.	.	2f
2E	1c	2r	2g
2F	.	2f	2a
=172	=172	=172	=172
1G	1B-	2d	1b-
.	.	2e	.
1F	2c	2.f	1a
.	2A	.	.
.	.	4e	.
=173	=173	=173	=173
0r	2B-	2d	2r
.	2c	2A	2a
.	1d	1B-	2f
.	.	.	2g
=174	=174	=174	=174
1F	1c	2A	2.a
.	.	2A	.
.	.	.	4g
2D	1r	2B-	2f
2E	.	2G	2e
=175	=175	=175	=175
2.F	2r	2A	2d
.	1A	2A	2c
4E	.	.	.
1D	.	1F	1f
.	2B	.	.
=176	=176	=176	=176
1C	2.c	1G	2r
.	.	.	1e
.	4c	.	.
1r	2c	1r	.
.	2d	.	2f
=177	=177	=177	=177
1r	2B-	0r	2.g
.	2.c	.	.
.	.	.	4g
2r	.	.	2g
.	4B-	.	.
2F	4A	.	2a
.	4G	.	.
=178	=178	=178	=178
2F	2A	0r	2f
2E-	2.B-	.	2.g
1D	.	.	.
.	4A	.	4f
.	2F	.	[2f
=179	=179	=179	=179
1C	1G	2r	2f]
.	.	2c	2e
2AA	[1F	2c	1f
4BB-	.	2B-	.
4C	.	.	.
=180	=180	=180	=180
4D	1F]	1A	1r
4E	.	.	.
1F	.	.	.
.	1C	1G	2r
4E	.	.	2g
4D	.	.	.
=181	=181	=181	=181
2E	0r	2G	2g
2F	.	4A	2f
.	.	4G	.
4C	.	4A	2e
4D	.	4B	.
4E	.	[2c	2e
4F	.	.	.
=182	=182	=182	=182
1G	1r	2c]	1d
.	.	2B	.
1C	2r	1c	2e
.	2c	.	4c
.	.	.	4d
=183	=183	=183	=183
0r	2c	1r	4e
.	.	.	4f
.	2B-	.	2g
.	2A	2r	4f
.	.	.	4e
.	2A	2c	4e
.	.	.	8d
.	.	.	8c
=184	=184	=184	=184
1r	1G	2c	2d
.	.	2B	2d
2r	2A	[1c	1c
2F	4F	.	.
.	4G	.	.
=185	=185	=185	=185
2F	4A	1c]	0r
.	4B-	.	.
2E	1c	.	.
2F	.	1d	.
2G	2B	.	.
=186	=186	=186	=186
2A	1c	2f	1r
2A	.	2e	.
1B-	1r	1d	2r
.	.	.	2f
=187	=187	=187	=187
1A	2r	2.c	2f
.	2c	.	2e
.	.	4B-	.
1r	2c	2A	2f
.	2B	2G	2g
=188	=188	=188	=188
2r	2c	2F	2a
2D	2d	2f	2a
2G	1B-	2d	1b-
2G	.	2e	.
=189	=189	=189	=189
2.F	1c	1.f	1a
4E	.	.	.
[1D	1d	.	2r
.	.	4e	[2a
.	.	4d	.
=190	=190	=190	=190
1D]	2A	1f	2a]
.	1A	.	2a
1AA	.	[1e	2.cc
.	2A	.	.
.	.	.	4b-
=191	=191	=191	=191
0r	2.c	1e]	2a
.	.	.	2g
.	4B-	.	.
.	2A	1r	2f
.	2G	.	2e
=192	=192	=192	=192
0r	2F	1r	2a
.	2E	.	2.g
.	1A	1c	.
.	.	.	4f
.	.	.	[2f
=193	=193	=193	=193
1r	0G	1d	2f]
.	.	.	4e
.	.	.	4d
1C	.	1c	1e
=194	=194	=194	=194
1D	2r	1A	1f
.	1F	.	.
1C	.	2r	1g
.	2E	[2c	.
=195	=195	=195	=195
1AA	2F	2c]	1a
.	4E	2c	.
.	4D	.	.
[1C	2.E	2c	1g
.	.	2c	.
.	4F	.	.
=196	=196	=196	=196
2C]	1G	2.c	2e
2C	.	.	1g
.	.	4d	.
1C	2C	[1e	.
.	[2c	.	2g
=197	=197	=197	=197
1C	2c]	1e]	2g
.	2c	.	2g
1F	2c	[1f	1a
.	2c	.	.
=198	=198	=198	=198
1BB-	1d	1f]	2f
.	.	.	1b-
1F	2c	2r	.
.	2f	[2c	[2a
=199	=199	=199	=199
1G	2e	2c]	2a]
.	2.d	2B	1g
1A	.	1c	.
.	4c	.	.
.	[2c	.	2f#
=200	=200	=200	=200
0G	2c]	0d	0g
.	4B	.	.
.	4A	.	.
.	1B	.	.
=201	=201	=201	=201
0C	1c	1e	2r
.	.	.	2g
.	1r	2r	1cc
.	.	2c	.
=202	=202	=202	=202
0r	1F	1f	2a
.	.	.	2f
.	1c	2e	2g
.	.	2c	2e
=203	=203	=203	=203
0r	2B-	2d	2f
.	2G	2B-	2g
.	1A	2.c	2e
.	.	.	[2f
.	.	4A	.
=204	=204	=204	=204
2r	1G	2B-	2f]
2C	.	2c	2e
1F	2A	1A	2c
.	2F	.	[2d
=205	=205	=205	=205
2E	2G	2r	4d]
.	.	.	4c
2C	1A	2c	1c
1D	.	1f	.
.	4G	.	2B
.	4F	.	.
=206	=206	=206	=206
1C	2G	2e	1c
.	2E	2c	.
2BB-	2F	2d	1r
2GG	[2G	2B-	.
=207	=207	=207	=207
2AA	4G]	2c	2r
.	4F	.	.
2BB-	1F	2d	2f
1GG	.	1B-	1b-
.	2E	.	.
=208	=208	=208	=208
1FF	2F	2r	2a
.	2F	1f	2f
2r	1c	.	1g
2C	.	2e	.
=209	=209	=209	=209
1F	2A	2c	1a
.	2F	2.d	.
2E	1G	.	2g
.	.	4c	.
2C	.	[2c	2e
=210	=210	=210	=210
1D	1F	2c]	1f
.	.	2B	.
1C	2G	1c	1e
.	2A	.	.
=211	=211	=211	=211
2BB-	1B-	1d	2d
2GG	.	.	2.g
2AA	1A	[1c	.
.	.	.	4f
2FF	.	.	[2f
=212	=212	=212	=212
0C	0G	0c]	2f]
.	.	.	4e
.	.	.	4d
.	.	.	1e
=213	=213	=213	=213
[0FF	[0F	[0A	[0f
=214	=214	=214	=214
0FF]	0F]	0A]	0f]
==	==	==	==
*-	*-	*-	*-
!!!CDT: 1525/^1526/-1594/2/2
!!!OCY: Italia
!!!AGN: Mass (Parody)
!!!AST: renaissance, vocal
!!!ASW: Motet 1532 (Courtois)
!!!PWK: Masses, Book 2
!!!RNB: Cadence finals: C
!!!YOR: Le Opere Complete, v. 4, p. 26
!!!YOO: Rome, Italy: Fratelli Scalera
!!!END: 1992//
!!!EED: John Miller
!!!YEC: Copyright 2000, John Miller
!!!YEN: United States of America
!!!YEM: Rights to all derivative electronic formats reserved.
!!!YEM: Refer to licensing agreement for further details.
!!!YEM: This file must be accompanied by the licensing agreement.
!!!YEM: A copy of the licensing agreement may be found at http://www.music-cog.ohio-state.edu/HumdrumDatabases/Palestrina/license.txt
!!!EMD: converted to Humdrum by Bret Aarden
